assets/azuremanagementportal/original.svg

<svg height="18" viewBox="0 0 18 18" width="18" xmlns="http://www.w3.org/2000/svg" xmlns:xlink="http://www.w3.org/1999/xlink"><linearGradient id="a" gradientUnits="userSpaceOnUse" x1="9" x2="9" y1="15.427" y2="5.973"><stop offset="0" stop-color="#32bedd"/><stop offset=".175" stop-color="#32caea"/><stop offset=".41" stop-color="#32d2f2"/><stop offset=".775" stop-color="#32d4f5"/></linearGradient><path d="m1 5.973h16v8.92a.535.535 0 0 1 -.535.535h-14.93a.535.535 0 0 1 -.535-.535z" fill="url(#a)"/><path d="m1.538 2.563h14.924a.535.535 0 0 1 .538.537v2.873h-16v-2.873a.535.535 0 0 1 .538-.537" fill="#198ab3"/><path d="m1 5.973h4.194v9.455h-3.658a.53.53 0 0 1 -.536-.533z" fill="#9cebff"/><path d="m5.194 13.356h11.806v1.544a.53.53 0 0 1 -.532.532h-11.274z" fill="#32bedd"/></svg>

<svg xmlns="http://www.w3.org/2000/svg" width="18" height="18" viewBox="0 0 18 18"><linearGradient id="a" x1="9" x2="9" y1="15.427" y2="5.973" gradientUnits="userSpaceOnUse"><stop offset="0" stop-color="#32bedd"/><stop offset=".175" stop-color="#32caea"/><stop offset=".41" stop-color="#32d2f2"/><stop offset=".775" stop-color="#32d4f5"/></linearGradient><path fill="url(#a)" d="M1 5.973h16v8.92a.535.535 0 0 1-.535.535H1.535A.535.535 0 0 1 1 14.893z"/><path fill="#198ab3" d="M1.538 2.563h14.924A.535.535 0 0 1 17 3.1v2.873H1V3.1a.535.535 0 0 1 .538-.537"/><path fill="#9cebff" d="M1 5.973h4.194v9.455H1.536A.53.53 0 0 1 1 14.895z"/><path fill="#32bedd" d="M5.194 13.356H17V14.9a.53.53 0 0 1-.532.532H5.194z"/></svg>
